build/img/youtube.svg

<?xml version="1.0" encoding="UTF-8"?>
<svg width="86px" height="95px" viewBox="0 0 86 95" version="1.1" xmlns="http://www.w3.org/2000/svg" xmlns:xlink="http://www.w3.org/1999/xlink">
    <!-- Generator: Sketch 49 (51002) - http://www.bohemiancoding.com/sketch -->
    <title>youtube 3</title>
    <desc>Created with Sketch.</desc>
    <defs>
        <path d="M45,1.45817992 L57.1747205,8.48725807 L74.5897327,18.5418201 C77.6837435,20.328148 79.5897327,23.6294182 79.5897327,27.2020741 L79.5897327,61.3693545 C79.5897327,64.9420104 77.6837435,68.2432805 74.5897327,70.0296085 L45,87.1132487 C41.9059892,88.8995766 38.0940108,88.8995766 35,87.1132487 L5.41026726,70.0296085 C2.31625649,68.2432805 0.410267256,64.9420104 0.410267256,61.3693545 L0.410267256,27.2020741 C0.410267256,23.6294182 2.31625649,20.328148 5.41026726,18.5418201 L17.3595018,11.6429263 L27.0495572,6.04837019 L34.0489556,2.00726563 L35,1.45817992 C38.0940108,-0.328148032 41.9059892,-0.328148032 45,1.45817992 Z" id="path-1"></path>
        <linearGradient x1="100%" y1="100%" x2="0%" y2="0%" id="linearGradient-3">
            <stop stop-color="#F5515F" offset="0%"></stop>
            <stop stop-color="#9F041B" offset="100%"></stop>
        </linearGradient>
    </defs>
    <g id="Page-1" stroke="none" stroke-width="1" fill="none" fill-rule="evenodd">
        <g id="Mobile" transform="translate(-117.000000, -286.000000)">
            <g id="Group-2" transform="translate(25.000000, 101.000000)">
                <g id="youtube-3" transform="translate(95.000000, 188.000000)">
                    <mask id="mask-2" fill="white">
                        <use xlink:href="#path-1"></use>
                    </mask>
                    <path stroke="#1E9DF2" stroke-width="3" d="M45.75,0.159141812 L75.3397327,17.242782 C78.8978451,19.2970591 81.0897327,23.0935198 81.0897327,27.2020741 L81.0897327,61.3693545 C81.0897327,65.4779087 78.8978451,69.2743695 75.3397327,71.3286466 L45.75,88.4122868 C42.1918876,90.4665639 37.8081124,90.4665639 34.25,88.4122868 L4.66026726,71.3286466 C1.10215487,69.2743695 -1.08973274,65.4779087 -1.08973274,61.3693545 L-1.08973274,27.2020741 C-1.08973274,23.0935198 1.10215487,19.2970591 4.66026726,17.242782 L34.25,0.159141812 C37.8081124,-1.89513533 42.1918876,-1.89513533 45.75,0.159141812 Z"></path>
                    <g id="youtube-(1)" transform="translate(17.142857, 28.285714)" fill="url(#linearGradient-3)" fill-rule="nonzero">
                        <path d="M46.8571429,6.59124816 C46.8571429,2.95072253 43.7222167,0 39.8546455,0 L7.00113376,0 C3.13434174,0 0,2.95145559 0,6.59124816 L0,24.2658947 C0,27.9064203 3.13492615,30.8571429 7.00113376,30.8571429 L39.8540611,30.8571429 C43.7224115,30.8571429 46.8565585,27.9056873 46.8565585,24.2658947 L46.8565585,6.59124816 L46.8571429,6.59124816 Z M18.7413767,19.2908673 L18.7413767,9.87822123 C18.7413767,8.77365173 19.6368072,7.87822123 20.7413767,7.87822123 C21.1139131,7.87822123 21.4790451,7.98227063 21.7956225,8.17864313 L29.3831476,12.885174 C30.3217987,13.4674179 30.6107238,14.7003469 30.0284799,15.6389979 C29.8659653,15.900992 29.6450809,16.1218677 29.3830804,16.2843719 L21.7955553,20.9904871 C20.8568812,21.5726939 19.6239636,21.28372 19.0417569,20.3450459 C18.8454111,20.0284836 18.7413767,19.6633769 18.7413767,19.2908673 Z" id="Shape"></path>
                    </g>
                </g>
            </g>
        </g>
    </g>
</svg>

<svg width="86" height="95" viewBox="0 0 86 95" xmlns="http://www.w3.org/2000/svg"><title>youtube 3</title><defs><path d="M45 1.458l12.175 7.03L74.59 18.541a10 10 0 0 1 5 8.66V61.37a10 10 0 0 1-5 8.66L45 87.114a10 10 0 0 1-10 0L5.41 70.03a10 10 0 0 1-5-8.66V27.201a10 10 0 0 1 5-8.66l11.95-6.9 9.69-5.594 6.999-4.04.951-.55a10 10 0 0 1 10 0z" id="a"/><linearGradient x1="100%" y1="100%" x2="0%" y2="0%" id="b"><stop stop-color="#F5515F" offset="0%"/><stop stop-color="#9F041B" offset="100%"/></linearGradient></defs><g fill="none" fill-rule="evenodd"><path stroke="#1E9DF2" stroke-width="3" d="M48.75 3.16l29.59 17.083a11.5 11.5 0 0 1 5.75 9.96v34.166a11.5 11.5 0 0 1-5.75 9.96L48.75 91.412a11.5 11.5 0 0 1-11.5 0L7.66 74.33a11.5 11.5 0 0 1-5.75-9.96V30.202a11.5 11.5 0 0 1 5.75-9.96L37.25 3.16a11.5 11.5 0 0 1 11.5 0z"/><path d="M46.857 6.591c0-3.64-3.135-6.591-7.002-6.591H7C3.134 0 0 2.951 0 6.591v17.675c0 3.64 3.135 6.591 7.001 6.591h32.853c3.868 0 7.003-2.951 7.003-6.591V6.59zm-28.116 12.7V9.878a2 2 0 0 1 3.055-1.7l7.587 4.707a2 2 0 0 1 0 3.4l-7.587 4.705a2 2 0 0 1-3.055-1.7z" transform="translate(20.143 31.286)" fill="url(#b)" fill-rule="nonzero"/></g></svg>
